X:1
T:Parla Piu Piano (Speak Softly Love)
T:Parla Piu Piano (Speak Softly Love)
T:Love Theme From "the Godfather"
T:Nino Rota
T:Larry Kusik
C:Nino Rota
Z:Larry Kusik
%%score 1 { 2 | 3 }
L:1/8
M:4/4
K:Eb
V:1 treble nm="Voice"
V:2 treble nm="Piano"
V:3 bass 
V:1
 z8 | z8 | z8 | z z z2 z Gce | dcec dcAB | G4 z Gce | dcec dcG_G | F4 z FA=B | d4- dFA=B | %9
w: |||Par- la piu|pia- no e ness- u- no sen- ti-|ra, Il nostro a-|mo- re lo vi- via- mo io e|te, Ness- un- o|sa * la ve- ri-|
 c4 z CEB | AGBA AGG=B, | C4 z4 | z z z2 z Gce | dcec dcAB | G4 z Gce | dcec dcG_G | F4 z FA=B | %17
w: ta Nepp- ure il|cie- lo che ci guar- da da la-|ssu|Par- la piu|pia- no e ness- u- no sen- ti-|ra, Il nostro a-|mo- re lo vi- via- mo io e|te, Ness- un- o|
 d4- dFA=B | c4 z CEB | AGBA AGG=B, | C4 z cc_c | B4 d2 !>!cA | G4 z GBG | F4 z FA^F | G4 z4 | %25
w: sa * la ve- ri-|ta Nepp- ure il|cie- lo che ci guar- da da la-|su In sieme a|te io rest- e-|ro a- mor- e|mio, sem- pre co-|si|
 z z z2 z Gce | dcec dcAB | G4 z Gce | dcec dcG_G | F4 z FA=B | d4- dagf | g4 z CEB | AGBA AGG=B, | %33
w: Par- la piu|pia- no e vieni piu vi- ci- no|me Voli- glio sen-|ti- re glio- cchi miei den- tro- di|te, Ness- u- no|sa * la ve- ri-|ta un grande a-|mor- ee mai piu grande e- sis- te-|
 C4 z cc_c | B4 d2 cA | G4 z GBG | F4 z FA^F | d4 z Be_g |[K:Gb] fege fecd | B4 z Beg | %40
w: ra In sieme a|te io rest- e-|ro a- mor- e|mio, sem- pre co-|si Par- la piu|pia- noe vie- ni piu vin- ci- no|ame vo- glio sen-|
 fege feB=A | A4 z Ace | f4- f a2 g/f/ | g4 z EGd | cBdc c B3 | B2 B2 g2 =d2 | e8 | (e8 | (e8) | %49
w: ti- re glio- cchi miei den- tro di|te Ness- u- no|sa * la veri- *|ta un grand ea-|mor- ee mai piu grand- e|* e- sis- te-|ra|||
 e8) | z8 | z8 |] %52
w: |||
V:2
 z (C[EG]C) [DF]4 | z (C[EG]C) [DF]4 | z (C[EG]C) [DF]4 | z (C[EG]C) [DF](Gce) | %4
 ([Ed]cec [Fd]cAB) | ([EG-]2 [DG-]2 [CG]Gce) | ([Ed]cec [G-d]c[CG]_G) | [CF]4- [CF]F-[FA]=B | %8
 [FAd]4- [FAd](F-[FA]=B) | [EGc]4- [EGc]C-[CE]B | ([CEA]GBA) ([CA]G[=B,G][G,B,]) | %11
 [G,-G]CDE DC [G,G]2 | z (C[EG]C) [DF]Gce | ([Ed]cec [Fd]cAB) | ([EG-]2 [DG-]2 [CG]Gce) | %15
 ([Ed]cec [G-d]c[CG]_G) | [CF]4- [CF]F-[FA]=B | [FAd]4- [FAd]F-[FA]=B | [EGc]4- [EGc]C-[CE]B | %19
 ([CEA]GBA) ([CA]G[=B,G][G,B,]) | [G,C]4- [G,C][E-G-c]([EGc]_c) | [FAB]4 [DAd]2 ([DFc]A) | %22
 [EG-]2 D2 [CG](GBG) | [_DF-]4 [CF]FA^F | [=B,G-]4 [B,G](Gce) | z (C[EG]C) [DF]Gce | %26
 ([Ed]cec [Fd]cAB) | ([EG-]2 [DG-]2 [CG]Gce) | ([Ed]cec [G-d]c[CG]_G) | [CF]4- [CF]F-[FA]=B | %30
 [FAd]4- [FAd]F-[FA]=B | [EGc]4- [EGc]C-[CE]B | ([CEA]GBA) ([CA]G[=B,G][G,B,]) | %33
 [G,C]4- [G,C][E-G-c]([EGc]_c) | [FAB]4 [DAd]2 ([DFc]A) | [EG-]2 D2 [CG](GBG) | [_DF-]4 [CF]FA^F | %37
 [=B,d-]4 [B,d]((Be_g)) |[K:Gb] ([Gf]ege [Af]ecd) | ([GB-]2 [FB-]2 [EB]Beg) | %40
 ([Gf]ege [B-f]e[EB]=A) | [EA]4- [EA]A-[Ac]e | [Acf]4- [Acf]a-[ca]g | [GBg]4- [GBg]E-[EG]d | %44
 ([EGc]Bdc) [Ec] (B3 | (B4) [Bg]2 [A=d]2) | [GBe-]4 e([B,B][Ee][Gg]) | %47
 ([FGf][Ee][Gg][Ee] [FAf][Ee][F-A-c-f][FAcg]) | ((((([GBeb]8 | (((([GBeb]8))))) | [GBeb]8)))) | %51
 z8 |] %52
V:3
 [C,G,]4 [C,A,]4 | [C,G,]4 [C,A,]4 | [C,G,]4 [C,A,]4 | [C,G,]4 [C,A,] z z2 | [C,G,]4 [C,A,]4 | %5
 ([C,G,]2 F,2 E,4) | [C,G,]4 [E,C]2 E,2 | [F,A,-]2 C,2 [F,A,]2 C,D, | F,,-C,F,(A, [F,,C]) z C,D, | %9
 C,,-(G,,C,E,) [C,,G,] z z2 | [G,,G,]4 [G,,F,]4 | [C,E,]4 [G,,C,]4 | [C,G,]4 [C,A,] z z2 | %13
 [C,G,]4 [C,A,]4 | ([C,G,]2 F,2 E,4) | [C,G,]4 [E,C]2 E,2 | [F,A,-]2 C,2 [F,A,]2 C,D, | %17
 F,,-C,F,(A, [F,,C]) z C,D, | C,,-(G,,C,E,) [C,,G,] z z2 | [G,,G,]4 [G,,F,]4 | ([C,E,]4 [G,,C,]4) | %21
 (3D,(F,B, F,2) (3B,,(F,A, B,2) | E,, B,,2 B,, E,,(E,G,E,) | (3F,,(_D,F, A,2) A,,F, A,2 | %24
 G,,D,G,D, [G,,G,] z z2 | [C,G,]4 [C,A,] z z2 | [C,G,]4 [C,A,]4 | ([C,G,]2 F,2 E,4) | %28
 [C,G,]4 [E,C]2 E,2 | [F,A,-]2 C,2 [F,A,]2 C,D, | F,,-C,F,(A, [F,,C]) z C,D, | %31
 C,,-(G,,C,E,) [C,,G,] z z2 | [G,,G,]4 [G,,F,]4 | ([C,E,]4 [G,,C,]4) | %34
 (3D,(F,B, F,2) (3B,,(F,A, B,2) | E,, B,,2 B,, E,,(E,G,E,) | (3F,,(_D,F, A,2) A,,F, A,2 | %37
 G,,D,G,D, [G,,G,] z z2 |[K:Gb] [E,B,]4 [E,C]4 | [E,B,]2 A,2 G,4 | [E,B,]4 [G,E]2 G,2 | %41
 [A,C-]2 E,2 [A,C]2 E,F, | A,,-E,A,(C [A,,E]) z E,F, | E,,-B,,E,G, [E,,B,] z z2 | %44
 [B,,B,]4 (([B,,A,]4 | [B,,A,]8)) | [E,G,B,]8 | [E,G,B,]4 [E,A,C]4 | ([E,G,B,]8 | [E,G,B,]8) | %50
 [E,G,B,]8 | z8 |] %52

